X:140
T:The Sheffield Jig
Z:Jack Campin, http://www.campin.me.uk/
F:Jack Campin's Nine-Note Tunebook
% last edit 03-02-2013
N:adapted from a transcription on TheSession.org of a tune
N:I've heard in English sessions.  Sounds vaguely Galician.
M:6/8
L:1/8
Q:3/8=108
K:DMin
DFA    A2A| BAG   A2A|Bcd cBA|GBG A3 |
DFA    A2A| BAG   A2A|Bcd cBA|GFE D3:|
d2 ^c2 =c2|=B2 _B2 A2|ABG A2A|BAG A2A|
d2 ^c2 =c2|=B2 _B2 A2|ABG A2A|GFE D3:|

